StripePaymentSheet/StripePaymentSheet/Resources/StripePaymentSheet.xcassets/Carousel/carousel_card_unknown.imageset/unknownLight.svg

<svg fill="none" height="40" viewBox="0 0 56 40" width="56" xmlns="http://www.w3.org/2000/svg"><path clip-rule="evenodd" d="m42.9124 31.9999h-29.8248c-.4021.0033-.801-.0718-1.1738-.2211s-.7122-.3698-.9989-.6489c-.2867-.2792-.5151-.6115-.6721-.9781-.157-.3665-.2395-.7601-.2428-1.1582v-17.9872c.0033-.3981.0858-.7917.2428-1.15822.157-.36654.3854-.69889.6721-.97805s.6261-.49968.9989-.64896.7717-.2244 1.1738-.22106h29.8248c.4021-.00334.801.07178 1.1738.22106s.7122.3698.9989.64896.5151.61151.6721.97805c.157.36652.2395.76012.2428 1.15822v17.9998c-.0101.8019-.3407 1.5671-.9193 2.1281-.5787.5611-1.3584.8723-2.1683.8656zm-18.9172-16.9515c0-.581-.4466-1.0484-.9952-1.0484s-7 0-7 0c-.5486 0-.9952.4674-.9952 1.0484v3.9516c0 .581.4466 1.0484.9952 1.0484h7c.5486 0 .9952-.4674.9952-1.0484 0 0 0-3.3705 0-3.9516z" fill="#515e80" fill-rule="evenodd" opacity=".2"/><g fill="#aab0bf"><path d="m15 25c0-.5523.4477-1 1-1h3.75c.5523 0 1 .4477 1 1 0 .5523-.4477 1-1 1h-3.75c-.5523 0-1-.4477-1-1z"/><path d="m21.75 25c0-.5523.4477-1 1-1h3.75c.5523 0 1 .4477 1 1 0 .5523-.4477 1-1 1h-3.75c-.5523 0-1-.4477-1-1z"/><path d="m28.5 25c0-.5523.4477-1 1-1h3.75c.5523 0 1 .4477 1 1 0 .5523-.4477 1-1 1h-3.75c-.5523 0-1-.4477-1-1z"/><path d="m35.25 25c0-.5523.4477-1 1-1h3.75c.5523 0 1 .4477 1 1 0 .5523-.4477 1-1 1h-3.75c-.5523 0-1-.4477-1-1z"/></g></svg>

<svg width="56" height="40" viewBox="0 0 56 40" fill="none" xmlns="http://www.w3.org/2000/svg">
<path opacity="0.2" fill-rule="evenodd" clip-rule="evenodd" d="M42.9124 31.9999H13.0876C12.6855 32.0032 12.2866 31.9281 11.9138 31.7788C11.541 31.6295 11.2016 31.409 10.9149 31.1299C10.6282 30.8507 10.3998 30.5184 10.2428 30.1518C10.0858 29.7853 10.0033 29.3917 10 28.9936V11.0064C10.0033 10.6083 10.0858 10.2147 10.2428 9.84818C10.3998 9.48164 10.6282 9.14929 10.9149 8.87013C11.2016 8.59097 11.541 8.37045 11.9138 8.22117C12.2866 8.07189 12.6855 7.99677 13.0876 8.00011H42.9124C43.3145 7.99677 43.7134 8.07189 44.0862 8.22117C44.459 8.37045 44.7984 8.59097 45.0851 8.87013C45.3718 9.14929 45.6002 9.48164 45.7572 9.84818C45.9142 10.2147 45.9967 10.6083 46 11.0064V29.0062C45.9899 29.8081 45.6593 30.5733 45.0807 31.1343C44.502 31.6954 43.7223 32.0066 42.9124 31.9999ZM23.9952 15.0484C23.9952 14.4674 23.5486 14 23 14C22.4514 14 16 14 16 14C15.4514 14 15.0048 14.4674 15.0048 15.0484V19C15.0048 19.581 15.4514 20.0484 16 20.0484H23C23.5486 20.0484 23.9952 19.581 23.9952 19C23.9952 19 23.9952 15.6295 23.9952 15.0484Z" fill="#515E80"/>
<path d="M15 25C15 24.4477 15.4477 24 16 24H19.75C20.3023 24 20.75 24.4477 20.75 25V25C20.75 25.5523 20.3023 26 19.75 26H16C15.4477 26 15 25.5523 15 25V25Z" fill="#AAB0BF"/>
<path d="M21.75 25C21.75 24.4477 22.1977 24 22.75 24H26.5C27.0523 24 27.5 24.4477 27.5 25V25C27.5 25.5523 27.0523 26 26.5 26H22.75C22.1977 26 21.75 25.5523 21.75 25V25Z" fill="#AAB0BF"/>
<path d="M28.5 25C28.5 24.4477 28.9477 24 29.5 24H33.25C33.8023 24 34.25 24.4477 34.25 25V25C34.25 25.5523 33.8023 26 33.25 26H29.5C28.9477 26 28.5 25.5523 28.5 25V25Z" fill="#AAB0BF"/>
<path d="M35.25 25C35.25 24.4477 35.6977 24 36.25 24H40C40.5523 24 41 24.4477 41 25V25C41 25.5523 40.5523 26 40 26H36.25C35.6977 26 35.25 25.5523 35.25 25V25Z" fill="#AAB0BF"/>
</svg>
